X:1
T:Parsifal Act 2 Ending (Vocal Score)
T:Parsifal Act 2 Ending (Vocal Score)
T:WWV 111, Richard Wagner
T:"Vergeh, unseliges Weib"
T:Made with Musescore 2.2 by M. R. on June 17th, 2018
C:WWV 111, Richard Wagner
%%score 1 2 3 { ( 4 6 9 ) | ( 5 7 8 10 ) }
L:1/8
Q:1/4=108
M:3/4
K:F
V:1 treble nm="Kundry" snm="K."
V:2 treble-8 nm="Parsifal" snm="P."
V:3 bass nm="Klingsor" snm="Kl."
V:4 treble nm="Piano" snm="Pno."
V:6 treble 
V:9 treble 
V:5 bass 
V:7 bass 
V:8 bass 
V:10 bass 
V:1
"^a tempo" z6 | z6 | z6 | z6 | z6 | z6 | z2 f3 d | z6 | z f2 d z d | b2- b z z2 | z2 f2- (3f f f | %11
 f ^G z2 z d | f4- f z | z d2 d2 d | g4 ^c z | z d2 d2 d | a6- | a4 A z | z6 | z6 | %20
[Q:1/4=96] z2 z2 z B | B3/2 c/ c3/2 ^c/ (3(ce) g | B3/2 c/ c3/2 ^c/ (3(c e) g | A2 z3/2 _e/ e2 | %24
 z2 d3/2 _e/ e2 | z2 d>_e e3/2 ^f/ | ^f2 f2[Q:1/4=108] (f>a) | a2 =B z z d | d4 d2 | f2 d2 z d | %30
 d2 d3 d | g4 G2 | z2 z2 e2- | e4 e2 | g6- | g2 G3 G ||[Q:1/4=84]"^Etwas breiter" ^F4 z2 | %37
 =f4 =F2 | z6 | _g4 _G2 | z6 | z2 ^G4 | z2 =G2 z ^F | A4 z2 | z6 | z2 (3g2 e2 ^c2 | ^f4 ^F F || %47
[K:C][M:4/4] =B4 z4 | z8 | z8 | z8 | z8 | z8 | z8 ||[K:D][Q:1/4=72]"^Etwas zurückhaltend" z8 | z8 | %56
 z8 | z8 | z8 | z8 | z8 | z8 | z8 | z8 | z8 | z8 | z8 ||[Q:1/4=140]"^Wieder ganz lebhaft" z8 | z8 | %69
 z8 | z8 | z8 | z8 | z8 | z8 | z8 | z8 | z8 | z8[Q:1/4=128] | z8 |[Q:1/4=114] z8 | z8 | z8 | %83
 z8[Q:1/4=104] | z8 | z8 |[Q:1/4=94] z8 |[Q:1/4=92] z8 |[Q:1/4=84]"^rall." z8 | z8 | %90
[Q:1/4=64] z8[Q:1/4=108]"^accel."[Q:1/4=140] |[Q:1/4=108]"^a tempo" z8 | z8 | z8 | z8 | z8 | %96
[Q:1/4=86]"^rall." z8[Q:1/4=78] |[Q:1/4=72] z8 | z8 | z8 | z8[Q:1/4=50][Q:1/4=42] |] %101
V:2
 z2 z2 z"^\"Vergeh, unseliges Weib\""!f! d | f6 | z e2 _e-e/d/ =B/ ^G/ | F2 z2 z2 | z6 | z6 | z6 | %7
 z6 | z6 | z6 | z6 | z6 | z6 | z6 | z6 | z6 | z6 | z6 | z6 | z6 | z6 | z6 | z6 | z6 | z6 | z6 | %26
 z6 | z6 | z6 | z6 | z6 | z6 | z6 | z6 | z6 | z6 || z6 | z6 | z6 | z6 | z6 | z6 | z6 | z6 | z6 | %45
 z6 | z6 ||[K:C][M:4/4] z8 | z8 | z8 | z8 | z8 | z8 | z8 ||[K:D] z8 | z8 | z!mp! d d d d3 d | %57
 d4- d d d3/2 g/ | g4 G2 z2 | z8 | z4 z2 =c c | e6 e d | d2 =c2 z2 c c | =c3 B B A z2 | %64
 z =c c4 A A |!mp!!<(! =f4 A2 z2 | d2- (3d d d d2- (3d d!f! d!<)! || a2 z2 z4 | z8 | z8 | z8 | z8 | %72
 z8 | z8 | z8 | z8 | z8 | z8 | z8 | z8 | z8 | z8 | z8 | z8 | z8 | z2!p! B2 B4 | z2 B2 B2!pp! B2 | %87
 =d8- | d6 d2 | d6 ^G2 | ^G4 z4 | z8 | z8 | z8 | z8 | z8 | z8 | z8 | z8 | z8 | z8 |] %101
V:3
 z6 | z6 | z6 | z6 | z6 | z6 | z6 | z6 | z6 | z6 | z6 | z6 | z6 | z6 | z6 | z6 | z6 | z6 | z6 | %19
 z6 | z6 | z6 | z6 | z6 | z6 | z6 | z6 | z6 | z6 | z6 | z6 | z6 | z6 | z6 | z6 | z6 || z6 | z6 | %38
 z6 | z6 | z6 | z6 | z6 | z6 | z6 | z6 | z6 ||[K:C][M:4/4] z4 z2 D2- | D2 =B,2 z2 B,2 | %49
 B,3 B, D F ^G, A, | _B,4 z4 | z2 _B,2 B,3 _D | _D3 D D2 D D | ^C6 C2 ||[K:D] D2- D z z4 | z8 | %56
 z8 | z8 | z8 | z8 | z8 | z8 | z8 | z8 | z8 | z8 | z8 || z8 | z8 | z8 | z8 | z8 | z8 | z8 | z8 | %75
 z8 | z8 | z8 | z8 | z8 | z8 | z8 | z8 | z8 | z8 | z8 | z8 | z8 | z8 | z8 | z8 | z8 | z8 | z8 | %94
 z8 | z8 | z8 | z8 | z8 | z8 | z8 |] %101
V:4
 z2!ff! !^![df^g=c']4- | ([dfgc']>=b _b/a/^g/f/ e/_e/(3d/=B/^G/) | .F =E2 (_E- E/D/=B,/^G,/) | %3
"_cresc." .A ^G2 (F- F/E/(3_E/D/=B,/) | .c =B2 (_A- A/G/(3^F/=F/D/) | ._e d2 (=B- B/_B/(3A/^G/F/) | %6
!f! .f!p! !tenuto!e2 !tenuto!_e2 .d |!f! .[_B_b] !>![Aa]2 !>![^G^g]2 .[=G=g] | %8
!f! .f!p! !tenuto!e2 !tenuto!_e2 .d |!f! .[_B_b] !>![Aa]2 !>![^G^g]2 .[=G=g] | %10
!f! .f!p! !tenuto!e2 !tenuto!_e2 .d | .f !tenuto!e2"_cresc." !tenuto!_e2 .d | %12
 .f !tenuto!e2 !tenuto!_e2 .d | .f !tenuto!e2 !tenuto!_e2!f! .d | %14
!p! .=g !tenuto!^f2 !tenuto!=f2 .e | _a g2 ^f2 =f | (=a ^g2) =g2 ^f | a ^g2 =g2 ^f- | %18
!f! [Fcef](^f/4g/4a/4=b/4 !^![cc']2 f)!f! (a/4b/4c'/4d'/4 | !^![ee']2- [ee']/c'/a/g/ ^f/e/c/=B/) | %20
!f! [G_B]>.[G=c][Gc]>.[G^c] (3.[Gc].e.g |!p! [GB]>.[Gc][Gc]>.[G^c]!<(! (3.[Gc].e!f!.g!<)! | %22
!p! [GB]>.[Gc][Gc]>.[G^c]!<(! (3.[Gc].e!f!.g!<)! | %23
!p! [A=c]>.[Ad][Ad]>.[A_e]!<(! (3.[Ae].^f!f!.a!<)! | %24
!p! [Ac]>.[Ad][Ad]>.[A_e]!<(! (3.[Ae].^f!f!.a!<)! | %25
!p! [Ac]>.[Ad][Ad]>.[GB_e]"_cresc."[GBe]>.[Be^f] | %26
 [B_e^f]>.[cea][cea]>.[cfac'] (3.[cfac'].[_e_e'].[^f^f'] |!f! .[ad'=f'a'] z!p!!<(! [=B,=B]4!<)! | %28
!f!!>(! (_B,/_B/A,/A/ _A,/_A/F,/F/!>)! (3.D)._D.C |!p!!<(! !tenuto![=B,=B]6!<)! | %30
!>(! (_B,/!f!_B/A,/A/ _A,/_A/F,/F/!>)! (3.D)._D.C |!p!!<(! [eg]6-!<)! | %32
!f! (3[eg].[eg]!>(!.[eg] (3.[eg].[Geg].[Geg] (3.[Geg].[G=eg].[Geg]!>)! | %33
!p! [Geg]2- (3[Geg].[Geg].[Geg] (3.[Geg].[Geg].[Geg] | %34
"_cresc." [Geg]2- (3[Geg].[Geg].[Geg] (3.[Geg].[Geg].[Geg] | x6 || %36
!f! (6:4:6^F/^f/F/f/F/f/ !///-!F f !///-!F f |!p! !///-![d=fa]2 A2 !///-![dfa] A | %38
"_cresc." !///-![_dfb]2 B2 !///-![dfb] B |!f! !///-![_d_gb]2 B2 !///-![dgb] B | %40
 (3:2:2x/ (=a(3:2:2x/^g(3:2:2x/f(3:2:2x/d(3:2:2x/=B(3:2:2x/A) | %41
 (3(A/F/A/(3F/A/F/ (3^G/E/G/(3E/G/E/ (3G/E/G/(3E/G/E/ | %42
!p! (3^G/E/G/(3E/G/E/ (3=G/_E/G/(3E/G/E/ (3G/E/G/(3E/^F/E/) |"_cresc." [A,C=EA]6 | x6 | %45
!f! !^![^A^c^f]2!f! !^![GAcg]2 z2 | z2!f! [^F=Bd^f] z!p! [^A,^CF] z || %47
[K:C][M:4/4] z2!f!!ff! (!^![df^g^c']2- [dfgc']/=c'/).b/.g/ .f/.d/.^c/.=c/ | %48
!f! !///-![^FGB]2!p! D2 !///-![FGB]2 D2 |!p! !///-![^FGB]2 D2 !///-![FGB]2 D2- | %50
 [DF=G_B]2!f! !^![Dd]2 !^![Ee]2 !^![Ff]2 |!f! !///-![_B_df]2!p! F2 !///-![Bdf]2 F2 | %52
"_cresc." !///-![_B_df]2 F2 !///-![Bdf]2 F2- | %53
 [F_B_df]2"_cresc." !>![^D=A^c^d]2 !>![^EAc^e]2 !>![^FAc^f]2 ||[K:D]!ff! !^![A=dfa]8[K:bass] | %55
!p! !///-!F2 F,2!<(! !///-!F F, F[K:treble] [Gd]!<)! | %56
!mp!!>(! z2!p! (6:4:6d'/d/d'/d/!>)!d'/d/ (6:4:6d'/d/d'/d/d'/d/ (6:4:6d'/d/d'/d/d'/d/ | %57
 (6:4:6d'/d/d'/d/d'/d/ (6:4:6d'/d/d'/d/d'/d/ (6:4:6d'/d/d'/d/d'/d/ (6:4:6d'/d/d'/d/d'/d/ | %58
!p!!8va(! (6:4:6g'/g/g'/g/g'/g/ (6:4:6g'/g/g'/g/g'/g/ (6:4:6g'/g/g'/g/g'/g/ (6:4:6g'/g/g'/g/g'/g/ | %59
!p!!p! (6:4:6g'/g/g'/g/g'/g/ (6:4:6g'/g/g'/g/g'/g/!<(! (6:4:6g'/g/g'/g/g'/g/ g'!8va)! [=ceg]!<)! | %60
!>(! z2!8va(! g/g'/g/g'/ g/g'/g/g'/!>)! g/g'/g/g'/ | !//-!g2 g'2 !//-!g2 g'2!8va)! | %62
!p! !//-!=c'2 =c2 !//-!c'2 c2 | !//-!=c'2 =c2 !//-!c' c c'!p! [=FA=c] | %64
"_cresc." z2 !//-!=c' =c !//-!c'2 c2 |!<(! !//-![=fd']2 d2 !//-![fd']2 d2 | %66
 !//-![=fd'] d !//-![ge'] e !//-![a=f'] =f!ff! !//-![bg'] g!<)! || %67
!ff!!8va(! [=c'e'g']/g/[c'e'g']/g/ [c'e'g']/g/[c'e'g']/g/ [c'e'g']/g/[c'e'g']/g/ [c'e'g']/g/[c'e'g']/g/ | %68
!ff! [=c'e'g']/.f'/.e'/.^d'/ .=c'/!8va)!.a/.g/.f/ .e/.^d/.=c/.A/ (3(G/F/E/(3^D/=C/A,/) | %69
[K:bass]!ff! .F,.A,.^B,,.^C, .D,.=F,.^G,,.A,, | ._B,,.^C,.E,,.=F,, .^F,,.A,,.^B,,,.C,, | %71
[K:treble] z2!ff! (_A,/_A/A,/A/ G,/G/G,/G/ F,/F/F,/F/ | %72
 =A,/A/A,/A/)!ff! (_A,/_A/A,/A/ G,/G/G,/G/ F,/F/F,/F/ | %73
 =A,/=A/A,/A/)!ff![I:staff +1] (=F,/[I:staff -1]=F/[I:staff +1]F,/[I:staff -1]F/[I:staff +1] E,/[I:staff -1]E/[I:staff +1]E,/[I:staff -1]E/[I:staff +1] ^D,/[I:staff -1]^D/[I:staff +1]D,/[I:staff -1]D/ | %74
 ^F,/^F/F,/F/)!ff![I:staff +1] (=F,/[I:staff -1]=F/[I:staff +1]F,/[I:staff -1]F/[I:staff +1] E,/[I:staff -1]E/[I:staff +1]E,/[I:staff -1]E/[I:staff +1] ^D,/[I:staff -1]^D/[I:staff +1]D,/[I:staff -1]D/ | %75
 ^F,/^F/F,/F/)[I:staff +1] (=D,/[I:staff -1]D/[I:staff +1]D,/[I:staff -1]D/"_dim."[I:staff +1] C,/[I:staff -1]C/[I:staff +1]C,/[I:staff -1]C/[I:staff +1] =C,/[I:staff -1]=C/[I:staff +1]C,/[I:staff -1]C/ | %76
[I:staff +1] _E,/[I:staff -1]_E/[I:staff +1]E,/[I:staff -1]E/)[I:staff +1] (=C,/[I:staff -1]=C/[I:staff +1]C,/[I:staff -1]C/[I:staff +1] B,,/[I:staff -1]B,/[I:staff +1]B,,/[I:staff -1]B,/[I:staff +1] ^A,,/[I:staff -1]^A,/[I:staff +1]A,,/[I:staff -1]A,/ | %77
[I:staff +1] D,/[I:staff -1]D/[I:staff +1]D,/[I:staff -1]D/)[I:staff +1] (_B,,/[I:staff -1]_B,/[I:staff +1]B,,/[I:staff -1]B,/[I:staff +1] A,,/[I:staff -1]A,/[I:staff +1]A,,/[I:staff -1]A,/[I:staff +1] ^G,,/[I:staff -1]^G,/[I:staff +1]G,,/[I:staff -1]G,/ | %78
[I:staff +1] =C,/[I:staff -1]=C/[I:staff +1]C,/[I:staff -1]C/)[I:staff +1] (_A,,/[I:staff -1][K:bass]_A,/[I:staff +1]A,,/[I:staff -1]A,/[I:staff +1] G,,/[I:staff -1]G,/[I:staff +1]G,,/[I:staff -1]G,/[I:staff +1] F,,/[I:staff -1]F,/[I:staff +1]F,,/[I:staff -1]F,/) | %79
"_dim." =F,8- | F,4 D,4 | z8 | z8 | z4!p! ([A,-=F]4 | E4 ^D4 | [^D,A,^F]8- | [A,F]2) z2 z4 | %87
[K:treble] z4!pp! ([=F-_B]4 | A4 ^G4 | [=F=B]8-) | [FB]8 |!ff! (!^![=gb]8- | [gb]4 ([^A-f^a-]4) | %93
 [A^ea]4)!ff! (=a4 |!<(! ^g4 =g4)!<)! | [ce=g-]8 |!>(! (g4 f3 e!>)! |!p! c'2 b6-) | %98
 [dfb]2!p! [Bdfb]6 | z2!p! [B,DFB]6 | z2[K:bass]!ff! !>![D,F,B,]2 !fermata!z4!f! |] %101
V:5
 z2!ff!!ped! !^![=B,,,=B,,]2 !^![F,^G,D]2 | %1
[K:treble] .[=B,F^G]!ped-up!!ff! (c/=B/ _B/A/^G/F/ E/_E/(3D/=B,/^G,/) | %2
[K:bass] .F, =E,2 (_E,- E,/D,/=B,,/^G,,/) | .A, ^G,2 (F,- F,/E,/(3_E,/D,/=B,,/) | %4
 .C =B,2 (_A,- A,/G,/(3^F,/=F,/D,/) | ._E D2 (=B,- B,/_B,/(3A,/^G,/F,/) |[K:treble] D2 ^D2 =E>F | %7
[K:bass]!f! !>!E,6 |[K:treble] !tenuto!D2 !tenuto!^D2 !tenuto!=E>F |[K:bass]!f! !>!E,6 | %10
[K:treble] !tenuto!D2 !tenuto!^D2 !tenuto!=E>F | !tenuto!D2 !tenuto!^D2 !tenuto!=E>F | %12
 !tenuto!D2 !tenuto!^D2 !tenuto!=E>F | !tenuto!D2 !tenuto!^D2 !tenuto!=E>F | %14
[K:bass]!p! [E,,E,]2 [=F,,=F,]2 [^F,,^F,]>[G,,G,] | [F,,F,]2 [^F,,^F,]2 [G,,G,]>[_A,,_A,] | %16
 !>![^F,,^F,]2 !>![G,,G,]2 !>![^G,,^G,]>[=A,,=A,] | %17
 !>![^F,,^F,]2 !>![=G,,=G,]2 !>![^G,,^G,]>[A,,A,] | %18
 (3.[A,,A,][K:treble]!f! .[A,CE^F].[A,CEF] (3.[A,CEF].[A,CEF].[A,CEF] (3.[A,CEF].[A,CEF].[A,CEF] | %19
!f! (3.[CE^FA].[CEFA].[CEFA] (3.[CEFA].[CEFA].[CEFA] .[CEFA] z | %20
 [^CE]>.[=CE][CE]>.[B,,B,E] (3.[B,,B,E].[G,,G,].[E,,E,] | [^CE]>.[=CE][CE]>.[B,E] (3.[B,E].G,.E, | %22
 [^CE]>.[=CE][CE]>.[B,E] (3.[B,E].G,.E, | [_E^F]>.[DF][DF]>.[CF] (3.[CF].A,.^F, | %24
 [_E^F]>.[DF][DF]>.[C,CF] (3.[C,CF].[A,,A,].[^F,,^F,] | %25
 [_E,_E^F]>.[D,DF][D,DF]>[K:bass].[C,C][C,C]>.[B,,B,] | %26
 [B,,B,]>.[^F,,^F,][F,,F,]>.[_E,,_E,][E,,E,]>.[C,,C,] | %27
 (=B,,,/=B,,/D,,/D,/!ped! E,,/E,/F,,/F,/ ^G,,/^G,/A,,/A,/)!ped-up! | [_B,,,_B,,]4- [B,,,B,,] z | %29
!ped! (=B,,,/=B,,/D,,/D,/ E,,/E,/F,,/F,/ ^G,,/^G,/A,,/A,/)!ped-up! | [_B,,,_B,,]4- [B,,,B,,] z | %31
!ped! (^C,,/^C,/E,,/E,/ ^F,,/^F,/G,,/G,/ ^A,,/^A,/=B,,/=B,/)!ped-up! | %32
 (=C,/=C/=B,,/=B,/ _B,,/_B,/G,,/G,/ (3[E,,E,][_E,,_E,][D,,D,]) | %33
!ped! (^C,,/^C,/E,,/E,/ ^F,,/^F,/G,,/G,/ ^A,,/^A,/=B,,/=B,/)!ped-up! | %34
!ped! (E,,/E,/G,,/G,/ =A,,/=A,/_B,,/_B,/ ^C,/^C/D,/D/)!ped-up! | %35
 ([G,,G,]/[I:staff -1]([EG]/[I:staff +1][B,,B,]/[I:staff -1]B/!ped![I:staff +1] C,/[I:staff -1][Cc]/[I:staff +1]^C,/[I:staff -1][^C^c]/[I:staff +1] E,/[I:staff -1][Ee]/[I:staff +1]=F,/)[I:staff -1][=F=f]/)!ped-up! || %36
!ped![I:staff +1] !>!^F,3 !>!A,!>![^B,,^B,]!>![^C,^C]!ped-up! | [D,D]2- [D,D] z z2 | %38
 !>![_B,,_B,]3 !>![_D,_D]!>![E,,E,]!>![F,,F,] | !>![_G,,_G,]3 !>![B,,B,]!>![C,,C,]!>![_D,,_D,] | %40
 .[=D,,=D,]2!p! [F,A,]4- | ([F,A,]2 [E,^G,]4-) | ([E,G,]2 =G,3 ^F,) | %43
!ped! ^F,,,/^F,,/A,,,/A,,/ [=B,,,=B,,]/[I:staff -1]=B,/[I:staff +1][C,,C,]/[I:staff -1]C/[I:staff +1] [^D,,^D,]/[I:staff -1]^D/[I:staff +1][=E,,=E,]/[I:staff -1]=E/ | %44
[I:staff +1] .[=F,,=F,]/!ped-up![I:staff -1].[A,C=F]/[I:staff +1].[E,,E,]/[I:staff -1].[CFA]/[I:staff +1].[C,,C,]/[I:staff -1].[EAc]/[I:staff +1].[=B,,,=B,,]/[I:staff -1].[Ace]/[I:staff +1].[A,,,A,,]/[I:staff -1].[Ac=f]/[I:staff +1].[G,,,G,,]/[I:staff -1].[Ac=f]/ | %45
!f![I:staff +1] !^![^F,,,^F,,]2!f! !^![E,,,E,,]2 z2 | z2 [^F,,,^F,,] z [^F,,^F,] z || %47
[K:C][M:4/4] z2!ped! [B,,,B,,]2- !^![F,^G,DF]2- [F,G,DF]!ped-up! z | z8 | %49
 z (3(^A,,/B,,/^C,/ D,3) .F,.[^G,,^G,].[=A,,A,] | %50
!ped!!<(! [_B,,_B,]2[K:treble] !///-![_B,F] G!ped-up! !///-![B,F] G !///-![B,D] G!<)! | [_B,_D]8 | %52
[K:bass] z (3(^F,,/G,,/A,,/ _B,,3) [_D,_D][=E,,=E,][=F,,F,] | %53
 [_G,,_G,]2 !///-!!^![^F,=A,] ^C !///-![F,A,]2 C2 || %54
[K:D][K:treble] z2[K:bass]!ped! .D,, z (7:4:7(D,/E,/F,/G,/A,/B,/C/ D)!ped-up! z | %55
[K:treble] B4 x4!ped! | [G,B,]8!ped-up! | z8 |!ped! ([GBd]8!ped-up! | ([EGBe]6) z [=CEG]) | %60
 [=CEG]8 | z8 | ([=CEG]8 | ([A,=CEA]6) z [=F,A,=C]) |[K:bass] [=F,A,=C]8 | [D,=F,A,D]8 | %66
 [A,=F]2 [G,E]2!ped! [=F,D]2 [B,DG]2!ped-up! ||!ped!!ff!!ff! z2 !^![E,A,=CE]6 | %68
 F,,,/F,,/F,,,/F,,/ F,,,/F,,/F,,,/F,,/!ped-up! F,,,/F,,/F,,,/F,,/ F,,,/F,,/F,,,/F,,/ | %69
 !//-!!^!F,,,2 F,,2 !//-!!^!=F,,,2 =F,,2 | !//-!!^!E,,,2 E,,2 !//-!!^!_E,,,2 _E,,2 | %71
!ff! !^![D,,,D,,]8- | [D,,,D,,]8 |!ff! [D,,,D,,]8- | [D,,,D,,]8 |!ff! =D,,8- | D,,8- | D,,8- | %78
 D,,8 | =F,,8- | F,,4 D,,4 |!p! [B,,,B,,]8- | [B,,,B,,]8- | [B,,,B,,]8- | [B,,,B,,]8- | %85
 [B,,,B,,]8- | [B,,,B,,]8 |!pp! [=D,,=D,]8- | [D,,D,]8 |!pp! [D,^G,]8- | %90
 z4[K:treble]"_cresc."[I:staff -1] (3^E/F/^G/(3A/^A/[I:staff +1]B/ (3c/d/e/[I:staff -1]^e/4f/4^g/4^a/4 | %91
!ff!!ped![I:staff +1] !^![C=E=GB]6[K:bass][I:staff -1] !^![CEGB]2- | %92
 [CEGB]4!ped-up![I:staff +1] ([^B,^DF]4 |!ped! [=B,=D^E]4)!ped-up! (^E4 | F4 G3 ^G) | %95
!ped! [F,CE]8 | F,,/F,/F,,/F,/ F,,/F,/F,,/F,/ F,,/F,/F,,/F,/!ped-up! F,,/F,/.F,, | %97
[K:treble]!p! [B,DFB]2[K:bass]!p! [D,F,]6- |!p! [D,F,]2 x4 x2 | %99
 B,,/B,,/!f!B,,,/B,,/ B,,,/B,,/B,,,/B,,/ B,,,/B,,/B,,,/B,,/ B,,,/B,,/B,,,/B,,/ | %100
!<(! B,,,/B,,/B,,, .[B,,,B,,]2!<)! B,,,/B,,/B,,,/B,,/!p! B,,,/B,,/!fermata!B,,, |] %101
V:6
 x6 | x6 | x6 | x6 | x6 | x6 | (3^GGG- (3GGG- (3GGG | %7
 (3[^ce][ce][ce]- (3[ce][ce][ce]- (3[ce][ce][ce] | (3^GGG- (3GGG- (3GGG | %9
 (3[^ce][ce][ce]- (3[ce][ce][ce]- (3[ce][ce][ce] | (3^GGG- (3GGG- (3GGG | (3^GGG- (3GGG- (3GGG | %12
 (3^GGG- (3GGG- (3GGG | (3^GGG- (3GGG- (3GGG | %14
 [_B^c]/=G/[Bc]/^F/"_cresc." [Bc]/F/[Bc]/=F/ [Bc]/F/[Bc]/E/ | %15
 [Bd]/_A/[Bd]/G/ [Bd]/G/[Bd]/^F/ [Bd]/F/[Bd]/=F/ | %16
 [c_e]/=A/[ce]/^G/ [ce]/G/[ce]/=G/ [ce]/G/[ce]/^F/ | %17
 [c_e]/A/[ce]/^G/ [ce]/G/[ce]/=G/ [ce]/G/[c=e]/-^F/- | x6 | x6 | x6 | x6 | x6 | x6 | x6 | x6 | x6 | %27
 x6 | x6 | x6 | x6 | (=B6 | _B2-) B x3 | x6 | x6 | x6 || x6 | x6 | x6 | x6 | %40
 (3f/a/f/(3e/^g/e/(3=d/f/d/(3=B/d/B/(3^G/B/G/(3F/A/F/ | D6- | D2 (3:2:2x/ _E x3 | x6 | x6 | x6 | %46
 x6 ||[K:C][M:4/4] x8 | x8 | x8 | x8 | x8 | x8 | x8 || %54
[K:D] x2[K:bass] .D, z!f!!>(! (7:4:7(F,,/G,,/A,,/B,,/C,/D,/E,/ (7:4:7F,/G,/A,/B,/C/!>)!!p!D/E/) | %55
 x7[K:treble] x | [Gd]8 | x8 |!8va(! x8 | x7!8va)! x | [=ceg]8!8va(! | x8!8va)! | x8 | x8 | %64
 [=FA=c]8 | x8 | x8 ||!8va(! x8 | x5/2!8va)! x11/2 |[K:bass] x8 | x8 |[K:treble] x8 | x8 | x8 | %74
 x8 | x8 | x8 | x8 | x5/2[K:bass] x11/2 | %79
 !>!B,,2 z2 !tenuto!B,,2 z[I:staff +1] (3B,,,/[I:staff -1]B,,/[I:staff +1]B,,,/ | %80
[I:staff -1] !tenuto!B,,2 z2 z2 !tenuto!B,,2 | x8 | x8 | x4 (^D,4 | E,4 ^E,3 ^F, | x8 | D,2) x6 | %87
[K:treble] x4 (^B,4 | A,4 ^A,3 =B,) | x8 | x8 | x8 | x8 | x4 [Bd]4- | [Bd]8 | B6 [CEB]2- | %96
 [CEB]6 [^Ac]2 | [df]8- | x8 | x8 | x2[K:bass] x6 |] %101
V:7
 x6 |[K:treble] x6 |[K:bass] x6 | x6 | x6 | x6 |[K:treble] =B,6 | %7
[K:bass] [=G,,=G,]2 [^G,,^G,]2 [A,,A,]>[B,,B,] |[K:treble] =B,6 | %9
[K:bass] [=G,,=G,]2 [^G,,^G,]2 [A,,A,]>[B,,B,] |[K:treble] =B,6 | !tenuto!=B,6 | !>!_B,6 | !>!A,6 | %14
[K:bass] x6 | x6 | x6 | x6 | x2/3[K:treble] x16/3 | x6 | x6 | x6 | x6 | x6 | x6 | %25
 x7/2[K:bass] x5/2 | x6 | x6 | x6 | x6 | x6 | x6 | x6 | x6 | x6 | x6 || x6 | x6 | x6 | x6 | %40
 x2 (D,4 | =B,,6) | C,2- [C,_E,]2 [A,,C,]2 | x6 | x6 | x6 | x6 || %47
[K:C][M:4/4] x4 [B,,,B,,]2- [B,,,B,,]2 | x8 | x8 | x2[K:treble] x6 | x8 |[K:bass] x8 | x8 || %54
[K:D][K:treble] !^![=DF]8[K:bass] |[K:treble] (([B,DF]6 x [G,B,])) | x8 | x8 | x8 | x8 | x8 | x8 | %62
 x8 | x8 |[K:bass] x8 | x8 | D,7 .[G,,G,] || [F,,,F,,]8 | x8 | x8 | x8 | x8 | x8 | x8 | x8 | x8 | %76
 x8 | x8 | x8 | !>!B,,,2 z2 !tenuto!B,,,2 z x | !tenuto!B,,,2 z2 z2 !tenuto!B,,,2 | x8 | x8 | x8 | %84
 x8 | x8 | x8 | x8 | x8 | x8 | [D,G,]8[K:treble] | %91
 z2[K:bass]!ff! (F,,,/F,,/F,,,/F,,/ F,,,/F,,/F,,,/F,,/ F,,,/F,,/F,,,/F,,/) | %92
 (F,,/F,/F,,/F,/ F,,/F,/.F,,) x4 | z/ (F,,/F,,,/F,,/ F,,,/F,,/F,,,/F,,/) !^![F,B,D]4- | [F,B,D]8 | %95
 z F,,/F,/ F,,/F,/F,,/F,/ F,,/F,/F,,/F,/ F,,/F,/F,,/F,/ | x8 | %97
[K:treble] x2[K:bass] B,,/B,/B,,/B,/ B,,/B,/B,,/B,/ B,,/B,/B,,/B,/ | %98
 B,,/B,/B,,/B,/ B,,/B,/B,,/B,/ B,,/B,/B,,/B,/ B,,/B,/B,,/B,/ | x8 | x8 |] %101
V:8
 x6 |[K:treble] x6 |[K:bass] x6 | x6 | x6 | x6 |[K:treble] x6 |[K:bass] x6 |[K:treble] x6 | %9
[K:bass] x6 |[K:treble] x6 | x6 | x6 | x6 |[K:bass] x6 | x6 | x6 | x6 | x2/3[K:treble] x16/3 | x6 | %20
 x6 | x6 | x6 | x6 | x6 | x7/2[K:bass] x5/2 | x6 | x6 | x4 (3.D,._D,.C, | x6 | x4 (3.D,._D,.C, | %31
 x6 | x6 | x6 | x6 | x6 || x6 | x6 | x6 | x6 | x6 | x6 | x6 | x6 | x6 | x6 | x6 ||[K:C][M:4/4] x8 | %48
 x8 | x8 | x2[K:treble] x6 | x8 |[K:bass] x8 | x8 ||[K:D][K:treble] x81/40[K:bass] x6 | %55
[K:treble] x8 | x8 | x8 | x8 | x8 | x8 | x8 | x8 | x8 |[K:bass] x8 | x8 | x8 || x8 | x8 | x8 | x8 | %71
 x8 | x8 | x8 | x8 | x8 | x8 | x8 | x8 | x8 | x8 | x8 | x8 | x8 | x8 | x8 | x8 | x8 | x8 | x8 | %90
 x4[K:treble] x4 | x2[K:bass] x6 | x8 | x8 | x8 | x8 | x8 |[K:treble] x2[K:bass] x6 | x8 | x8 | %100
 x8 |] %101
V:9
 x6 | x6 | x6 | x6 | x6 | x6 | x6 | x6 | x6 | x6 | x6 | x6 | x6 | x6 | x6 | x6 | x6 | x6 | x6 | %19
 x6 | x6 | x6 | x6 | x6 | x6 | x6 | x6 | x6 | x6 | x6 | x6 | x6 | x6 | x6 | x6 | x6 || x6 | x6 | %38
 x6 | x6 | =A2 x4 | x6 | x6 | x6 | x6 | x6 | x6 ||[K:C][M:4/4] x8 | x8 | x8 | x8 | x8 | x8 | x8 || %54
[K:D] x2[K:bass] x6 | x7[K:treble] x | x8 | x8 |!8va(! x8 | x7!8va)! x | x2!8va(! x6 | x8!8va)! | %62
 x8 | x8 | x8 | x8 | x8 ||!8va(! x8 | x5/2!8va)! x11/2 |[K:bass] x8 | x8 |[K:treble] x8 | x8 | x8 | %74
 x8 | x8 | x8 | x8 | x5/2[K:bass] x11/2 | x8 | x8 | x8 | x8 | x8 | A,8 | x8 | x8 |[K:treble] x8 | %88
 F8 | x8 | x8 | x8 | x8 | x8 | x8 | x8 | x8 | x8 | x8 | x8 | x2[K:bass] x6 |] %101
V:10
 x6 |[K:treble] x6 |[K:bass] x6 | x6 | x6 | x6 |[K:treble] x6 |[K:bass] x6 |[K:treble] x6 | %9
[K:bass] x6 |[K:treble] x6 | x6 | x6 | x6 |[K:bass] x6 | x6 | x6 | x6 | x2/3[K:treble] x16/3 | x6 | %20
 x6 | x6 | x6 | x6 | x6 | x7/2[K:bass] x5/2 | x6 | x6 | x6 | x6 | x6 | x6 | x6 | x6 | x6 | x6 || %36
 x6 | x6 | x6 | x6 | x6 | x6 | x6 | x6 | x6 | x6 | x6 ||[K:C][M:4/4] x8 | x8 | x8 | %50
 x2[K:treble] x6 | x8 |[K:bass] x8 | x8 ||[K:D][K:treble] x81/40[K:bass] x6 |[K:treble] x8 | x8 | %57
 x8 | x8 | x8 | x8 | x8 | x8 | x8 |[K:bass] x8 | x8 | x8 || x8 | x8 | x8 | x8 | x8 | x8 | x8 | x8 | %75
 x8 | x8 | x8 | x8 | x8 | x8 | x8 | x8 | x8 | x8 | x8 | x8 | x8 | x8 | x8 | x4[K:treble] x4 | %91
 x2[K:bass] x6 | x4 F,,,/F,,/F,,,/F,,/ F,,,/F,,/F,,,/F,,/ | x8 | x8 | x8 | x8 | %97
[K:treble] x2[K:bass] x6 | x8 | x8 | x8 |] %101

